packages/bezier-icons/icons/refresh.svg

<svg width="24" height="24" viewBox="0 0 24 24" fill="none" xmlns="http://www.w3.org/2000/svg">
<path fill-rule="evenodd" clip-rule="evenodd" d="M21 12C20.4477 12 20.0066 12.45 19.9381 12.998C19.4453 16.9398 16.0731 20 12 20C7.589 20 4 16.411 4 12C4 7.589 7.589 4 12 4C14.117 4 16.107 4.819 17.613 6.303L15.52 8.396C15.205 8.711 15.427 9.25 15.873 9.25H21.5C21.776 9.25 22 9.026 22 8.75V3.123C22 2.677 21.461 2.455 21.146 2.77L19.027 4.889C17.143 3.027 14.651 2 12 2C6.486 2 2 6.486 2 12C2 17.514 6.486 22 12 22C17.177 22 21.4479 18.0455 21.9505 12.9986C22.0053 12.449 21.5523 12 21 12Z" fill="#313234"/>
</svg>

<svg xmlns="http://www.w3.org/2000/svg" width="24" height="24" fill="none" viewBox="0 0 24 24"><path fill="#313234" fill-rule="evenodd" d="M21 12c-.552 0-.993.45-1.062.998C19.445 16.94 16.073 20 12 20c-4.411 0-8-3.589-8-8s3.589-8 8-8c2.117 0 4.107.819 5.613 2.303L15.52 8.396a.5.5 0 0 0 .353.854H21.5a.5.5 0 0 0 .5-.5V3.123a.5.5 0 0 0-.854-.353l-2.119 2.119A9.93 9.93 0 0 0 12 2C6.486 2 2 6.486 2 12s4.486 10 10 10c5.177 0 9.448-3.954 9.95-9.001.055-.55-.398-.999-.95-.999" clip-rule="evenodd"/></svg>
